static/assets/template/assets/img/icons/essential/detailed/Calculator_2.svg

<svg height="150" viewBox="0 0 124 150" width="124" xmlns="http://www.w3.org/2000/svg"><g fill="none" fill-rule="evenodd" transform="translate(1 1)"><path d="m112.3 146.6h-102.7c-4.8 0-8.8-3.9-8.8-8.8v-128.3c0-4.8 3.9-8.8 8.8-8.8h102.7c4.8 0 8.8 3.9 8.8 8.8v128.3c0 4.9-3.9 8.8-8.8 8.8z" fill-rule="nonzero"/><path d="m121.1 13.5v124.6c0 4.7-3.8 8.5-8.5 8.5h-100.5c-4.7 0-8.5-3.8-8.5-8.5v-124.6c0-4.7 3.8-8.5 8.5-8.5h100.5c4.6 0 8.5 3.8 8.5 8.5z" fill-rule="nonzero"/><path d="m121.1 13.5v119.1c0 4.7-3.8 8.5-8.5 8.5h-100.5c-4.7 0-8.5-3.8-8.5-8.5v-119.1c0-4.7 3.8-8.5 8.5-8.5h100.5c4.6 0 8.5 3.8 8.5 8.5z" fill-rule="nonzero"/><path d="m49.1.9h63.2c4.8 0 8.8 3.9 8.8 8.8v128.3c0 4.8-3.9 8.8-8.8 8.8h-102.7c-4.8 0-8.8-3.9-8.8-8.8v-128.3c0-4.8 3.9-8.8 8.8-8.8h13.4" stroke-linecap="round" stroke-linejoin="round" stroke-width="3.2"/><path d="m36.8.9h1.2" stroke-linecap="round" stroke-linejoin="round" stroke-width="3.2"/><path d="m86.3 44.4h-73.2c-2.7 0-5-2.2-5-5v-23.9c0-2.7 2.2-5 5-5h95.8c2.7 0 5 2.2 5 5v23.9c0 2.7-2.2 5-5 5h-12.2" fill-rule="nonzero" stroke-linecap="round" stroke-linejoin="round" stroke-width="3.2"/><path d="m106 137.6h-90.1c-4.3 0-7.8-3.5-7.8-7.8v-68.3c0-4.3 3.5-7.8 7.8-7.8h90.1c4.3 0 7.8 3.5 7.8 7.8v68.3c0 4.3-3.5 7.8-7.8 7.8z" fill-rule="nonzero"/><g stroke-linecap="round" stroke-linejoin="round" stroke-width="3.2"><path d="m61 54.1v82.1"/><path d="m61 95.6h52.5"/><path d="m8.4 95.6h43"/><path d="m61.3 137.6h-45.4c-4.3 0-7.8-3.5-7.8-7.8v-68.3c0-4.3 3.5-7.8 7.8-7.8h2.8"/><path d="m31.3 53.6h74.7c4.3 0 7.8 3.5 7.8 7.8v68.3c0 4.3-3.5 7.8-7.8 7.8h-18.7"/><g transform="translate(26 67)"><path d="m8.7.3v16.3"/><path d="m16.9 8.5h-16.4"/></g><g transform="translate(28 111)"><path d="m12.5.6-11.6 11.6"/><path d="m12.5 12.2-11.6-11.6"/></g><path d="m96.2 75.5h-16.4"/><path d="m96.2 113.1h-16.4"/><path d="m96.2 121.4h-16.4"/><path d="m89.3 38h-1.2c-1.2 0-2.2-1-2.2-2.2l.9-5.8"/><path d="m99.2 30.8-.8 5c0 1.2-1 2.2-2.2 2.2h-1.4"/><path d="m97.4 18.3h1.2c1.2 0 2.2 1 2.2 2.2l-.7 4.7"/><path d="m87.6 24.5.6-3.9c0-1.2 1-2.2 2.2-2.2h1.3"/></g></g></svg>

<?xml version="1.0" encoding="UTF-8"?>
<svg width="124px" height="150px" viewBox="0 0 124 150" version="1.1" xmlns="http://www.w3.org/2000/svg" xmlns:xlink="http://www.w3.org/1999/xlink">
    <!-- Generator: Sketch 51.2 (57519) - http://www.bohemiancoding.com/sketch -->
    <title>Calculator_2</title>
    <desc>Created with Sketch.</desc>
    <defs></defs>
    <g id="Page-1" stroke="none" stroke-width="1" fill="none" fill-rule="evenodd">
        <g id="Calculator_2" transform="translate(1.000000, 1.000000)">
            <path d="M112.3,146.6 L9.6,146.6 C4.8,146.6 0.8,142.7 0.8,137.8 L0.8,9.5 C0.8,4.7 4.7,0.7 9.6,0.7 L112.3,0.7 C117.1,0.7 121.1,4.6 121.1,9.5 L121.1,137.8 C121.1,142.7 117.2,146.6 112.3,146.6 Z" id="Shape" class="fill-neutral" fill-rule="nonzero"></path>
            <path d="M121.1,13.5 L121.1,138.1 C121.1,142.8 117.3,146.6 112.6,146.6 L12.1,146.6 C7.4,146.6 3.6,142.8 3.6,138.1 L3.6,13.5 C3.6,8.8 7.4,5 12.1,5 L112.6,5 C117.2,5 121.1,8.8 121.1,13.5 Z" id="Shape" class="fill-primary-500" fill-rule="nonzero"></path>
            <path d="M121.1,13.5 L121.1,132.6 C121.1,137.3 117.3,141.1 112.6,141.1 L12.1,141.1 C7.4,141.1 3.6,137.3 3.6,132.6 L3.6,13.5 C3.6,8.8 7.4,5 12.1,5 L112.6,5 C117.2,5 121.1,8.8 121.1,13.5 Z" id="Shape" class="fill-primary-300" fill-rule="nonzero"></path>
            <path d="M49.1,0.9 L112.3,0.9 C117.1,0.9 121.1,4.8 121.1,9.7 L121.1,138 C121.1,142.8 117.2,146.8 112.3,146.8 L9.6,146.8 C4.8,146.8 0.8,142.9 0.8,138 L0.8,9.7 C0.8,4.9 4.7,0.9 9.6,0.9 L23,0.9" id="Shape" class="stroke-primary" stroke-width="3.2" stroke-linecap="round" stroke-linejoin="round"></path>
            <path d="M36.8,0.9 L38,0.9" id="Shape" class="stroke-primary" stroke-width="3.2" stroke-linecap="round" stroke-linejoin="round"></path>
            <path d="M86.3,44.4 L13.1,44.4 C10.4,44.4 8.1,42.2 8.1,39.4 L8.1,15.5 C8.1,12.8 10.3,10.5 13.1,10.5 L108.9,10.5 C111.6,10.5 113.9,12.7 113.9,15.5 L113.9,39.4 C113.9,42.1 111.7,44.4 108.9,44.4 L96.7,44.4" id="Shape" class="stroke-primary" stroke-width="3.2" class="fill-neutral" fill-rule="nonzero" stroke-linecap="round" stroke-linejoin="round"></path>
            <path d="M106,137.6 L15.9,137.6 C11.6,137.6 8.1,134.1 8.1,129.8 L8.1,61.5 C8.1,57.2 11.6,53.7 15.9,53.7 L106,53.7 C110.3,53.7 113.8,57.2 113.8,61.5 L113.8,129.8 C113.8,134.1 110.3,137.6 106,137.6 Z" id="Shape" class="fill-primary-100" fill-rule="nonzero"></path>
            <path d="M61,54.1 L61,136.2" id="Shape" class="stroke-primary-300" stroke-width="3.2" stroke-linecap="round" stroke-linejoin="round"></path>
            <path d="M61,95.6 L113.5,95.6" id="Shape" class="stroke-primary-300" stroke-width="3.2" stroke-linecap="round" stroke-linejoin="round"></path>
            <path d="M8.4,95.6 L51.4,95.6" id="Shape" class="stroke-primary-300" stroke-width="3.2" stroke-linecap="round" stroke-linejoin="round"></path>
            <path d="M61.3,137.6 L15.9,137.6 C11.6,137.6 8.1,134.1 8.1,129.8 L8.1,61.5 C8.1,57.2 11.6,53.7 15.9,53.7 L18.7,53.7" id="Shape" class="stroke-primary" stroke-width="3.2" stroke-linecap="round" stroke-linejoin="round"></path>
            <path d="M31.3,53.6 L106,53.6 C110.3,53.6 113.8,57.1 113.8,61.4 L113.8,129.7 C113.8,134 110.3,137.5 106,137.5 L87.3,137.5" id="Shape" class="stroke-primary" stroke-width="3.2" stroke-linecap="round" stroke-linejoin="round"></path>
            <g id="Group" transform="translate(26.000000, 67.000000)" class="stroke-primary" stroke-linecap="round" stroke-linejoin="round" stroke-width="3.2">
                <path d="M8.7,0.3 L8.7,16.6" id="Shape"></path>
                <path d="M16.9,8.5 L0.5,8.5" id="Shape"></path>
            </g>
            <g id="Group" transform="translate(28.000000, 111.000000)" class="stroke-primary" stroke-linecap="round" stroke-linejoin="round" stroke-width="3.2">
                <path d="M12.5,0.6 L0.9,12.2" id="Shape"></path>
                <path d="M12.5,12.2 L0.9,0.6" id="Shape"></path>
            </g>
            <path d="M96.2,75.5 L79.8,75.5" id="Shape" class="stroke-primary" stroke-width="3.2" stroke-linecap="round" stroke-linejoin="round"></path>
            <path d="M96.2,113.1 L79.8,113.1" id="Shape" class="stroke-primary" stroke-width="3.2" stroke-linecap="round" stroke-linejoin="round"></path>
            <path d="M96.2,121.4 L79.8,121.4" id="Shape" class="stroke-primary" stroke-width="3.2" stroke-linecap="round" stroke-linejoin="round"></path>
            <path d="M89.3,38 L88.1,38 C86.9,38 85.9,37 85.9,35.8 L86.8,30" id="Shape" class="stroke-primary-300" stroke-width="3.2" stroke-linecap="round" stroke-linejoin="round"></path>
            <path d="M99.2,30.8 L98.4,35.8 C98.4,37 97.4,38 96.2,38 L94.8,38" id="Shape" class="stroke-primary-300" stroke-width="3.2" stroke-linecap="round" stroke-linejoin="round"></path>
            <path d="M97.4,18.3 L98.6,18.3 C99.8,18.3 100.8,19.3 100.8,20.5 L100.1,25.2" id="Shape" class="stroke-primary-300" stroke-width="3.2" stroke-linecap="round" stroke-linejoin="round"></path>
            <path d="M87.6,24.5 L88.2,20.6 C88.2,19.4 89.2,18.4 90.4,18.4 L91.7,18.4" id="Shape" class="stroke-primary-300" stroke-width="3.2" stroke-linecap="round" stroke-linejoin="round"></path>
        </g>
    </g>
</svg>
